assets/img/features/smartphone.svg

<svg height="32" viewBox="0 0 20 32" width="20" xmlns="http://www.w3.org/2000/svg" xmlns:xlink="http://www.w3.org/1999/xlink"><linearGradient id="a" gradientUnits="objectBoundingBox" x2=".961" y2="1.034"><stop offset="0" stop-color="#1879f4"/><stop offset="1" stop-color="#a135db"/></linearGradient><path d="m17 0h-14a3 3 0 0 0 -3 3v26a3 3 0 0 0 3 3h14a3 3 0 0 0 3-3v-26a3 3 0 0 0 -3-3zm-7 30a2 2 0 1 1 2-2 2 2 0 0 1 -2 2zm7-6.75a.752.752 0 0 1 -.75.75h-12.5a.752.752 0 0 1 -.75-.75v-19.5a.752.752 0 0 1 .75-.75h12.5a.752.752 0 0 1 .75.75z" fill="url(#a)"/></svg>

<svg xmlns="http://www.w3.org/2000/svg" xmlns:xlink="http://www.w3.org/1999/xlink" width="20" height="32" viewBox="0 0 20 32"><defs><linearGradient id="a" x2=".961" y2="1.034" gradientUnits="objectBoundingBox"><stop offset="0" stop-color="#1879f4"/><stop offset="1" stop-color="#a135db"/></linearGradient></defs><g><path fill="url(#a)" d="M17,0H3A3,3,0,0,0,0,3V29a3,3,0,0,0,3,3H17a3,3,0,0,0,3-3V3A3,3,0,0,0,17,0ZM10,30a2,2,0,1,1,2-2A2,2,0,0,1,10,30Zm7-6.75a.752.752,0,0,1-.75.75H3.75A.752.752,0,0,1,3,23.25V3.75A.752.752,0,0,1,3.75,3h12.5a.752.752,0,0,1,.75.75Z" transform="translate(-19 -2177.999) translate(19 2177.999)"/></g></svg>
